X: 16
T: Snuff & Twopenny
%C: Mr. Gray
%R: reel
B: Mr. Gray "24 Country Dances for the Year 1805" p.8 #2
S: http://folkopedia.efdss.org/images/9/92/ThompsGray_24_1805.PDF  2013-12-2
Z: 2013 John Chambers <jc:trillian.mit.edu>
M: 2/4
L: 1/16
K: D
|:\
dfaf dgbg | dfaf ecBA |\
dfaf dgbg | fedc d2d2 :|
|:\
ecAg fgaf | ecAg (fg).a2 |\
afdA Bbag | faAc d2d2 :|
% - - - - - - - - - - - - - - - - - - - - - - - - -
%%begintext align
%% Set & hands across the same back again,
%% down the mid: up again, right & left.
%%endtext
